icons/snow.svg

<svg role="img" xmlns="http://www.w3.org/2000/svg" width="24" height="24" viewBox="0 0 24 24">
    <path  d="M19.051177 17.9568482C20.7223033 17.6924988 22 16.2454604 22 14.5 22 12.7095527 20.6555928 11.2331085 18.9211951 11.0250841 18.4554927 8.17503894 15.9817502 6 13 6 10.711801 6 8.72277 7.28089089 7.71081142 9.16476838 7.3255638 9.05739789 6.9194849 9 6.5 9 4.01471863 9 2 11.0147186 2 13.5 2 15.8113421 3.74257606 17.7156838 5.98562648 17.9709234 6.0981598 17.9837287 6.43628431 17.979037 7 17.9568482M16 18L10 18M11.5 15.4019238L14.5 20.5980762M14.7633558 15.572949L11.2366442 20.427051"/>
</svg>

<svg role="img" xmlns="http://www.w3.org/2000/svg" width="24" height="24" viewBox="0 0 24 24" aria-labelledby="snowIconTitle snowIconDesc">
    <title id="snowIconTitle">Snow</title>
    <desc id="snowIconDesc">Icon of a cloud with falling snow</desc>
    <path  d="M19.051 17.957C20.5 17.97 22 16.245 22 14.5a3.5 3.5 0 0 0-3.079-3.475 6.002 6.002 0 0 0-11.21-1.86A4.504 4.504 0 0 0 2 13.5c0 2.311 1.5 4.47 3.986 4.47H7m9 .03h-6m1.5-2.598l3 5.196m.263-5.025l-3.526 4.854"/>
</svg>
